X: 1015
T: Mixing the Punch
N:"Collected by J.O'Neill"
B:O'Neill's 1015
Z:Transcribed by Dan G. Petersen, dangp@post6.tele.dk
M:6/8
L:1/8
K:D
(A/G/)|FED dfe|dAF GFE|GBG edB|ABA GFE|
FAD GBE|Ace dAG|FDG ECE|DED D2:|
(3A/B/c/|d2d def|ABA Fdc|Bcd efg|d2f ecA|
FED def|efg ecA|FDG ECE|DED D2:|


